X: 10
T: Miss Trotter
C: Traditional
T: Dance: The Partnership
N: For Doreen and Me
B: Social Dances 2002
R: strathspey
Z: 2014 John Chambers <jc:trillian.mit.edu>
M: C
L: 1/16
K: A
|:\
"A"A,3C EA3 "D"FA3 "A/C#"Ec3 | "Bm"d3B dcBA "E"GB3 B4 |\
"A"A,3C EA3 "D"FA3 "Bm"d3f | "E7"e3c dcBA "A"EA3 A4 | 
"A"A,3C EA3 "D"FA3 "A/C#"Ec3 | "Bm"d3B dcBA "E"GB3 B4 |\
"A"A,3C EA3 "D"FA3 "Bm"d3f | "E7"e3c dcBA "A"EA3 A3e ||
||\
"A"a3e c3e "D"fa3 "A/C#"e3c | "Bm"d3B dcBA "E"GB3 B3g |\
"A"a3e c3e "D"fa3 "A/C#"e3c | "Bm"(3def "E7"e3d "A"cA3 A3g |
"A"a3e c3e "D"fa3 "A/C#"e3c | "Bm"d3B dcBA "E"GB3 B3d |\
"A"cA3 e3c "Bm"dB3 "D"f3d | "A/E"(3cde "E7"efg | "A"aA3 A4 :|
